X:73
T:no name
R:slide
Z:id:hn-slide-73
M:6/8
L:1/8
K:D
A2F A2B | A2F E2F | D2F FDF | F2D E2F |
A2F A2B | A2F E2d |1 c2E EDE | A3 d2B :|2 c2E EFE | D3 DFA ||
|: ded cdc | B2A F2E | D2F FDF | F2D E3 |
A2d d2A | B2e e2d | c2d c2B |1 A3 ABc :|2 A3 A2B ||

